src/images/skill/bushcraft/bamboo.svg

<svg xmlns="http://www.w3.org/2000/svg" viewBox="0 0 512 512" style="height: 512px; width: 512px;"><g class="" transform="translate(0,0)" style=""><path d="M18 27.7v106c27.94 8.9 47.63 19.8 68.45 33.3-1.22-15.7.14-30.6 4.07-44.8 5.35-19.3 15.38-36.93 29.48-52.99C86.02 55.33 46.92 49.79 18 27.7zm119.5 48.97c-14.7 15.48-24.6 32.23-29.6 50.33-4.1 14.8-5.1 30.7-2.5 47.9 51.5 10.9 88.1 31.2 119.4 50.3-9.5-27.7-6.8-54.1 1.9-73.8 6-11.2 12.2-21 21.3-27.7-40.9-9.9-78.9-24.01-110.5-47.03zm152.9 65.93c10.5 9.8 16.9 27 16.9 45.6 0 29.6-16 53.7-35.8 53.7-13 0-25-10.6-31.3-27.6 1.3 4.4 2.9 8.9 4.9 13.4 10.5 23.5 27.2 31.3 49.2 35.6 19.2 3.8 41.8 3.7 63.9 7.5 5.5-37.1-4.3-67.1-21.1-89.9-12.7-17.3-29.7-30.2-46.7-38.3zm-13.2 134.9c11.6 76.3 7 130.2 6.1 209.1 11.3 5.9 18.9 2.7 26.7 0-3.2-28.5 3.1-56.9 5.7-85.4 3.2 28.2 10.1 55.3 5.7 85.4 33.3 9.6 63.4 5.5 64.1 0-1.9-73.7-18.6-124.5-17.2-195.2-6.7-1.6-14.1-3-20-3.8.1 13.3 0 26.5-4 40.4-6.1-13.5-6.9-27.6-7.5-41.7-9-.9-18.3-1.5-27.6-2.6 2.7 6.5 4.7 36.8 5.4 42.6 3.1 25.2-6.4 54.1-6.4 54.1-4.8-6.4-13.2-67.1-5.4-97.5-8.9-1.1-17.8-2.8-25.6-5.4zM388.7 310s-.5 27.8 5.3 40c2.8 5.8 13 12.6 18.6 8.6 6.7-4.8 1.9-17.6-2.4-24.6-5.6-9.1-21.5-24-21.5-24zm-50.6 37.6s12.1 37.4 13.9 56.9c1.5 16.7-2.2 50.2-2.2 50.2s-6.6-26.3-8.7-39.5c-3.6-22.7-3-67.6-3-67.6zm-66 80.6s-9 10.4-12.7 19.4c-2.8 6.9-4 18.6 1 21.8 4.6 2.9 11.2-5.6 12.8-11.2 3.5-11.8-1.1-30-1.1-30z" fill="#fff" fill-opacity="1"></path></g></svg>

<svg xmlns="http://www.w3.org/2000/svg" viewBox="0 0 512 512" style="height: 512px; width: 512px;"><g class="" transform="translate(0,0)" style=""><g><path d="M18 27.7L18 133.7C45.94 142.6 65.63 153.5 86.45 167C85.23 151.3 86.59 136.4 90.52 122.2C95.87 102.9 105.9 85.27 120 69.21C86.02 55.33 46.92 49.79 18 27.7Z" class="" fill="#563e0a" fill-opacity="1"></path><path d="M137.5 76.67C122.8 92.15 112.9 108.9 107.9 127C103.8 141.8 102.8 157.7 105.4 174.9C156.9 185.8 193.5 206.1 224.8 225.2C215.3 197.5 218 171.1 226.7 151.4C232.7 140.2 238.9 130.4 248 123.7C207.1 113.8 169.1 99.69 137.5 76.67Z" class="" fill="#333308" fill-opacity="1"></path><path d="M290.4 142.6C300.9 152.4 307.3 169.6 307.3 188.2C307.3 217.8 291.3 241.9 271.5 241.9C258.5 241.9 246.5 231.3 240.2 214.3C241.5 218.7 243.1 223.2 245.1 227.7C255.6 251.2 272.3 259 294.3 263.3C313.5 267.1 336.1 267 358.2 270.8C363.7 233.7 353.9 203.7 337.1 180.9C324.4 163.6 307.4 150.7 290.4 142.6Z" class="" fill="#cb972a" fill-opacity="1"></path><path d="M277.2 277.5C288.8 353.8 284.2 407.7 283.3 486.6C294.6 492.5 302.2 489.3 310 486.6C306.8 458.1 313.1 429.7 315.7 401.2C318.9 429.4 325.8 456.5 321.4 486.6C354.7 496.2 384.8 492.1 385.5 486.6C383.6 412.9 366.9 362.1 368.3 291.4C361.6 289.8 354.2 288.4 348.3 287.6C348.4 300.9 348.3 314.1 344.3 328C338.2 314.5 337.4 300.4 336.8 286.3C327.8 285.4 318.5 284.8 309.2 283.7C311.9 290.2 313.9 320.5 314.6 326.3C317.7 351.5 308.2 380.4 308.2 380.4C303.4 374 295 313.3 302.8 282.9C293.9 281.8 285 280.1 277.2 277.5Z" class="" fill="#8d5c13" fill-opacity="1"></path><path d="M388.7 310C388.7 310 388.2 337.8 394 350C396.8 355.8 407 362.6 412.6 358.6C419.3 353.8 414.5 341 410.2 334C404.6 324.9 388.7 310 388.7 310Z" class="" fill="#8d5c13" fill-opacity="1"></path><path d="M338.1 347.6C338.1 347.6 350.2 385 352 404.5C353.5 421.2 349.8 454.7 349.8 454.7C349.8 454.7 343.2 428.4 341.1 415.2C337.5 392.5 338.1 347.6 338.1 347.6Z" class="" fill="#8d5c13" fill-opacity="1"></path><path d="M272.1 428.2C272.1 428.2 263.1 438.6 259.4 447.6C256.6 454.5 255.4 466.2 260.4 469.4C265 472.3 271.6 463.8 273.2 458.2C276.7 446.4 272.1 428.2 272.1 428.2Z" class="selected" fill="#8d5c13" fill-opacity="1"></path></g></g></svg>
